!!!OTL: MEI SCHATZERL IS HUEBSCH ABER REICH IS ES NIT
!!!ARE: Europa, Mitteleuropa, Deutschland
!!!SCT: F0107
!!!YEM: Copyright 1995, estate of Helmut Schaffrath.
**kern
*ICvox
*Ivox
*M3/8
*k[f#c#g#d#]
*E:
{16g#
16a
=1
8b
8g#
16g#
16gg#
=2
4ee}
{16g#
16cc#
=3
16cc#
16d#
16d#
16b
16b
16d#
=4
8e
8r}
{16d#
16e
=5
8f#
8f#
16g#
16a#
=6
8b
8b}
{16cc#
16dd#
=7
16ff#
16ee
16dd#
16cc#
16b
16a#
=8
4.b}
=9
{16g#
16a
16b
16cc#
8b
=10
16b
16ee
16g#
16cc#
8b}
=11
{16b
16a
16a
16g#
16a
16cc#
=12
8b
16b
16a
8g#}
=13
{16e
16f#
16g#
16a
16b
16cc#
=14
8a
16a
16g#
8f#}
=15
{16e
16f#
16g#
16a
16b
16cc#
=16
8a
16a
16g#
[8f#
=17
4f#]}
{16g#
16a
=18
8b
8g#
16g#
16gg#
=19
4ee}
{16g#
16cc#
=20
16cc#
16d#
16d#
16b
16b
16d#
=21
8e
8r}
==
!!!AGN: Liebes - Lied
!!!ONB: ESAC (Essen Associative Code) Database: FINK
!!!AMT: simple triple
!!!AIN: vox
!!!EED: Helmut Schaffrath
!!!EEV: 1.0
*-
